X: 369
T: Bir Gonca Femin Yâresi
C: Dede Efendi
O: Turkey
F: http://compmusic.upf.edu/node/140
N: beyati--beste--hafif--bir_gonca_femin--dede_efendi
N: makam= beyati
N: form= beste
N: usul= hafif = 32/4
M: 32/4
L: 1/16
K: C _2/4B   
Q: 1/4=40
%%MIDI tuningsystem comma53
d6 c2 g2 f2 e2 d2 f3 e d2 e2 d2 e2 d2 c2  | \
w:   | 
g2 f2 e2 d2 d2 c2 c2 B2 B2 c2 B2 A2 A8  | 
w:   | 
z2 g2 f2 e2 f2 g2 f2 e2 f2 g2 f2 e2 d4 a2 g2  | \
w:   | 
g2 f2 e2 d2 d2 c d e2 e d c4 d4 d8  | 
w:   | 
g4 ^f2 _7/8e2 d4 e2 f2 g2 a2 g2 f2 e3 d c4  | \
w:   | 
z2 d _7/8e d2 c2 d4 e4 g ^f g a g2 f2 e2 d2 c2 B2  | 
w:   | 
c6 z2 c4 a2 g2 g2 f2 e2 d2 d2 c d e2 e d  | \
w:   | 
c4 d4 d4 z2 c2 e2 d f e2 d2 d2 c4 B2  | 
w:   | 
e2 d f e2 d2 d2 c4 B2 B2 A6 d c B A G4  | \
w:   | 
z2 B c B2 c2 d2 e2 d2 c2 B3 A B2 c2 B2 A2 G2 ^F2  | 
w:   | 
G8 z2 d c B2 c2 d2 e2 d2 c2 g2 f2 e2 d2  | \
w:   | 
d2 c4 B2 B2 A4 e2 d2 c2 B2 A2 A6 z2  | 
w:   | 
f4 e2 f2 a2 g2 f2 e2 e4 d2 e2 f2 g2 e2 d2  | \
w:   | 
d4 c2 d2 e2 e d d2 d c c3 B B A B A A4 e2 d2  | 
w:   | 
g ^f _7/8e d c4 B2 d =e d2 e2 d2 c4 B2 B3 A G2 A2  | \
w:   | 
A2 c4 B A A8 c4 d4 d8  | 
w:   | 
d6 c2 g2 f2 e2 d2 f3 e d2 e2 d2 e2 d2 c2  | \
w:   | 
g2 f2 e2 d2 d2 c2 c2 B2 B2 c2 B2 A2 A8  | 
w:   | 
z2 g2 f2 e2 f2 g2 f2 e2 f2 g2 f2 e2 d4 a2 g2  | \
w:   | 
g2 f2 e2 d2 d2 c d e2 e d c4 d4 d8  | 
w:   | 
g4 ^f2 _7/8e2 d4 e2 f2 g2 a2 g2 f2 e3 d c4  | \
w:   | 
z2 d _7/8e d2 c2 d4 e4 g ^f g a g2 f2 e2 d2 c2 B2  | 
w:   | 
c6 z2 c4 a2 g2 g2 f2 e2 d2 d2 c d e2 e d  | \
w:   | 
c4 d4 d4 z2 c2 e2 d f e2 d2 d2 c4 B2  | 
w:   | 
e2 d f e2 d2 d2 c4 B2 B2 A6 d c B A G4  | \
w:   | 
z2 B c B2 c2 d2 e2 d2 c2 B3 A B2 c2 B2 A2 G2 ^F2  | 
w:   | 
G8 z2 d c B2 c2 d2 e2 d2 c2 g2 f2 e2 d2  | \
w:   | 
d2 c4 B2 B2 A4 e2 d2 c2 B2 A2 A6 z2  | 
w:   | 
f4 e2 f2 a2 g2 f2 e2 e4 d2 e2 f2 g2 e2 d2  | \
w:   | 
d4 c2 d2 e2 e d d2 d c c3 B B A B A A4 e2 d2  | 
w:   | 
g ^f _7/8e d c4 B2 d =e d2 e2 d2 c4 B2 B3 A G2 A2  | \
w:   | 
A2 c4 B A A8 g4 a4 a8  | 
w:   | 
a6 g2 a3 g ^f2 g2 a2 ^a4 =a2 g3 f _7/8e d c2  | \
w:   | 
d2 _7/8e4 d2 a2 g2 g2 ^f e d e f4 e d d8  | 
w:   | 
d4 _7/8e2 ^f2 g4 a4 a2 g2 g2 f2 g4 a4  | \
w:   | 
z2 a4 g2 g2 c'2 b2 a2 g4 a4 a8  | 
w:   | 
b4 a2 b2 d'2 c'2 b2 a2 a4 g2 a2 b2 c'2 a2 g2  | \
w:   | 
^f4 g4 g8 c'4 b2 a2 a2 g2 f2 _7/8e d  | 
w:   | 
g ^f _7/8e d c4 c4 a2 g2 g2 =f2 =e2 d2 d2 c d e2 e d  | \
w:   | 
c4 d4 d4 z2 c2 e2 d f e2 d2 d2 c4 B2  | 
w:   | 
e2 d f e2 d2 d2 c4 B2 B2 A6 d c B A G4  | \
w:   | 
z2 B c B2 c2 d2 e2 d2 c2 B3 A B2 c2 B2 A2 G2 ^F2  | 
w:   | 
G8 z2 d c B2 c2 d2 e2 d2 c2 g2 f2 e2 d2  | \
w:   | 
d2 c4 B2 B2 A4 e2 d2 c2 B2 A2 A4 z4  | 
w:   | 
f4 e2 f2 a2 g2 f2 e2 e4 d2 e2 f2 g2 e2 d2  | \
w:   | 
d4 c2 d2 e2 e d d2 d c c3 B B A B A A4 e2 d2  | 
w:   | 
g ^f _7/8e d c4 B2 d =e d2 e2 d2 c4 B2 B3 A G2 A2  | \
w:   | 
A2 c4 B A A8 c4 d4 d8  | 
w:   | 
e2 d f e2 d2 d2 c4 B2 B2 A6 d c B A G4  | \
w:   | 
z2 B c B2 c2 d2 e2 d2 c2 B3 A B2 c2 B2 A2 G2 ^F2  | 
w:   | 
G8 z2 d c B2 c2 d2 e2 d2 c2 g2 f2 e2 d2  | \
w:   | 
d2 c4 B2 B2 A4 e2 d2 c2 B2 A2 A6 z2  | 
w:   | 
f4 e2 f2 a2 g2 f2 e2 e4 d2 e2 f2 g2 e2 d2  | \
w:   | 
d4 c2 d2 e2 e d d2 d c c3 B B A B A A4 e2 d2  | 
w:   | 
g ^f _7/8e d c4 B2 d =e d2 e2 d2 c4 B2 B3 A G2 A2  | \
w:   | 
A2 c4 B A A8 c4 d4 d8  | 
w:   | 
d6 c2 g2 f2 e2 d2 f3 e d2 e2 d2 e2 d2 c2  | \
w:   | 
g2 f2 e2 d2 d2 c2 c2 B2 B2 c2 B2 A2 A8  | 
w:   | 
z2 g2 f2 e2 f2 g2 f2 e2 f2 g2 f2 e2 d4 a2 g2  | \
w:   | 
g2 f2 e2 d2 d2 c d e2 e d c4 d4 d8  | 
w:   | 
g4 ^f2 _7/8e2 d4 e2 f2 g2 a2 g2 f2 e3 d c4  | \
w:   | 
z2 d _7/8e d2 c2 d4 e4 g ^f g a g2 f2 e2 d2 c2 B2  | 
w:   | 
c6 z2 c4 a2 g2 g2 f2 e2 d2 d2 c d e2 e d  | \
w:   | 
c4 d4 d4 z2 c2 e2 d f e2 d2 d2 c4 B2  | 
w:   | 
e2 d f e2 d2 d2 c4 B2 B2 A6 d c B A G4  | \
w:   | 
z2 B c B2 c2 d2 e2 d2 c2 B3 A B2 c2 B2 A2 G2 ^F2  | 
w:   | 
G8 z2 d c B2 c2 d2 e2 d2 c2 g2 f2 e2 d2  | \
w:   | 
d2 c4 B2 B2 A4 e2 d2 c2 B2 A2 A6 z2  | 
w:   | 
f4 e2 f2 a2 g2 f2 e2 e4 d2 e2 f2 g2 e2 d2  | \
w:   | 
d4 c2 d2 e2 e d d2 d c c3 B B A B A A4 e2 d2  | 
w:   | 
g ^f _7/8e d c4 B2 d =e d2 e2 d2 c4 B2 B3 A G2 A2  | \
w:   | 
A2 c4 B A A8 z16  | 
w:   | 
|


